X: 1
T: Ice Blue Reel
C: Theo MacGregor
N: Somewhat modified by John Chambers
Z: John Chambers <jc:trillian.mit.edu>
M: C|
L: 1/8
K: D
|: DE | "D"~F2dc "Bm"BAGF | "Em"~E2FD "A7"B,2FE | "D"DEFA "Bm"dcBA | "Em"~E2FD "A7"A2FG |
      | "D"~A2dc "Bm"BAGF | "Em"~E2FD "A7"B,2DE | "D"FDFA "Em"GEGB | "A7"~D2FE "D"D2 :|
|: DE | "Bm"~F2FE FABA | "G"GFED "A7"B,2DE | "Bm"~F2FE FAdc | "G"B4- "A7"B2de |
      | "Bm"fedc BAGF | "G"BAGF "A7"E2DE | "D"FDFA "Em"GEGB | "A7"~D2FE "D"D2 :|
